storage/app/icons/phosphoricons/fill/paragraph-fill.svg

<svg xmlns="http://www.w3.org/2000/svg" fill="currentColor" viewBox="0 0 256 256"><path d="M216 48a8 8 0 0 1-8 8h-16v152a8 8 0 0 1-16 0V56h-24v152a8 8 0 0 1-16 0v-40H96a64 64 0 0 1 0-128h112a8 8 0 0 1 8 8"/></svg>

<svg xmlns="http://www.w3.org/2000/svg" viewBox="0 0 256 256" fill="currentColor"><path d="M216,48a8,8,0,0,1-8,8H192V208a8,8,0,0,1-16,0V56H152V208a8,8,0,0,1-16,0V168H96A64,64,0,0,1,96,40H208A8,8,0,0,1,216,48Z"/></svg>
